src/assets/images/techport.svg

<svg width="85" height="85" viewBox="0 0 85 85" fill="none" xmlns="http://www.w3.org/2000/svg">
<path d="M79.0455 0H5.95454C2.67312 0 0 2.67298 0 5.95424V79.0415C0 82.327 2.67312 84.9957 5.95454 84.9957H79.0455C82.3312 84.9957 85 82.3227 85 79.0415V5.95424C85 2.67298 82.3312 0 79.0455 0ZM81.5986 79.0415C81.5986 80.4508 80.4548 81.5945 79.0455 81.5945H5.95454C4.54516 81.5945 3.40137 80.4508 3.40137 79.0415V5.95424C3.40137 4.54493 4.54516 3.4012 5.95454 3.4012H79.0455C80.4548 3.4012 81.5986 4.54493 81.5986 5.95424V79.0415Z" fill="#E33059"/>
<path fill-rule="evenodd" clip-rule="evenodd" d="M69.6215 15.374H65.3634L62.1719 19.452L58.9847 15.374H54.7266L60.0428 22.1764L54.7266 28.9831H58.9847L62.1719 24.9051L65.3634 28.9831H69.6215L64.301 22.1764L69.6215 15.374Z" fill="#732B90"/>
<path d="M63.8934 42.4935C63.8934 43.4445 63.1223 44.2155 62.1713 44.2155C61.2203 44.2155 60.4492 43.4445 60.4492 42.4935C60.4492 41.5425 61.2203 40.7715 62.1713 40.7715C63.1223 40.7715 63.8934 41.5425 63.8934 42.4935Z" fill="#FEBE23"/>
<path fill-rule="evenodd" clip-rule="evenodd" d="M62.1708 39.0667C60.2817 39.0667 58.748 40.6002 58.748 42.4893C58.748 44.3826 60.2817 45.9119 62.1708 45.9119C64.0643 45.9119 65.5936 44.3783 65.5936 42.4893C65.5979 40.6002 64.0643 39.0667 62.1708 39.0667ZM62.1708 44.751C60.9242 44.751 59.9133 43.7401 59.9133 42.4893C59.9133 41.2384 60.9242 40.2275 62.1708 40.2275C63.4217 40.2275 64.4327 41.2384 64.4327 42.4893C64.4327 43.7401 63.4217 44.751 62.1708 44.751Z" fill="#732B90"/>
<path fill-rule="evenodd" clip-rule="evenodd" d="M68.7991 56H55.5449V59.4226H60.4371V69.6091H63.8599V59.4226H68.7991V56Z" fill="#732B90"/>
<path fill-rule="evenodd" clip-rule="evenodd" d="M28.6468 15.374H15.3926V18.7966H20.2804V28.9831H23.7032V18.7966H28.6468V15.374Z" fill="#732B90"/>
<path fill-rule="evenodd" clip-rule="evenodd" d="M16.1289 35.687V49.2961H19.556V39.1096H24.4824V49.2961H27.9052V35.687H16.1289Z" fill="#732B90"/>
<path d="M23.7411 62.8023C23.7411 63.7533 22.97 64.5244 22.019 64.5244C21.068 64.5244 20.2969 63.7533 20.2969 62.8023C20.2969 61.8514 21.068 61.0803 22.019 61.0803C22.97 61.0803 23.7411 61.8514 23.7411 62.8023Z" fill="#E33059"/>
<path fill-rule="evenodd" clip-rule="evenodd" d="M22.0185 59.3796C20.125 59.3796 18.5957 60.9132 18.5957 62.8023C18.5957 64.6913 20.1293 66.2249 22.0185 66.2249C23.912 66.2249 25.4413 64.6913 25.4413 62.8023C25.4413 60.9132 23.9077 59.3796 22.0185 59.3796ZM22.0185 65.064C20.7719 65.064 19.7566 64.0531 19.7566 62.8023C19.7566 61.5557 20.7676 60.5405 22.0185 60.5405C23.2651 60.5405 24.2761 61.5514 24.2761 62.8023C24.2761 64.0531 23.2651 65.064 22.0185 65.064Z" fill="#732B90"/>
<path fill-rule="evenodd" clip-rule="evenodd" d="M47.9239 18.7966V15.374H36.2676V28.9831H47.9239V25.5605H39.6904V23.8899H44.4926V20.4673H39.6904V18.7966H47.9239Z" fill="#732B90"/>
<path fill-rule="evenodd" clip-rule="evenodd" d="M42.0936 35.3787C38.1653 35.3787 34.9824 38.5614 34.9824 42.4938C34.9824 46.4219 38.1653 49.6046 42.0936 49.6046C46.0219 49.6046 49.2091 46.4219 49.2091 42.4938C49.2091 38.5614 46.0262 35.3787 42.0936 35.3787ZM42.1022 46.1777C40.0631 46.1777 38.4095 44.5242 38.4095 42.4852C38.4095 40.4462 40.0631 38.7927 42.1022 38.7927C44.1413 38.7927 45.7948 40.4462 45.7948 42.4852C45.7948 44.5242 44.1456 46.1777 42.1022 46.1777Z" fill="#732B90"/>
<path fill-rule="evenodd" clip-rule="evenodd" d="M43.9919 56H35.9512V69.6091H39.374V64.533H43.962C43.9662 64.533 43.9662 64.533 43.9705 64.533C43.9748 64.533 43.9748 64.533 43.9791 64.533H43.9877C46.3352 64.5244 48.2329 62.6182 48.2329 60.2665C48.2415 57.9148 46.3395 56.0086 43.9919 56ZM43.9791 61.1061C43.9748 61.1061 43.9748 61.1061 43.9791 61.1061H39.3782V59.4226H43.9962V59.4183C44.4546 59.4269 44.823 59.7996 44.823 60.2622C44.823 60.7291 44.446 61.1061 43.9791 61.1061Z" fill="#732B90"/>
</svg>

<svg width="85" height="85" fill="none" xmlns="http://www.w3.org/2000/svg"><path d="M79.046 0H5.955A5.964 5.964 0 000 5.954v73.088a5.96 5.96 0 005.955 5.954h73.09A5.96 5.96 0 0085 79.042V5.954A5.96 5.96 0 0079.046 0zm2.553 79.041a2.554 2.554 0 01-2.553 2.553H5.955A2.554 2.554 0 013.4 79.042V5.954a2.554 2.554 0 012.554-2.553h73.09A2.554 2.554 0 0181.6 5.954v73.088z" fill="#E33059"/><path fill-rule="evenodd" clip-rule="evenodd" d="M69.621 15.374h-4.258l-3.191 4.078-3.187-4.078h-4.258l5.316 6.802-5.316 6.807h4.258l3.187-4.078 3.191 4.078h4.258l-5.32-6.807 5.32-6.802z" fill="#732B90"/><path d="M63.893 42.493a1.722 1.722 0 11-3.444 0 1.722 1.722 0 013.444 0z" fill="#FEBE23"/><path fill-rule="evenodd" clip-rule="evenodd" d="M62.17 39.067a3.422 3.422 0 100 6.845 3.421 3.421 0 003.424-3.423 3.419 3.419 0 00-3.423-3.422zm0 5.684a2.259 2.259 0 01-2.257-2.262 2.259 2.259 0 114.52 0 2.26 2.26 0 01-2.262 2.262zM68.8 56H55.544v3.423h4.892v10.186h3.423V59.423h4.94V56zM28.647 15.374H15.393v3.423h4.887v10.186h3.423V18.797h4.944v-3.423zM16.129 35.687v13.61h3.427V39.11h4.926v10.186h3.423V35.687H16.13z" fill="#732B90"/><path d="M23.741 62.802a1.722 1.722 0 11-3.444 0 1.722 1.722 0 013.444 0z" fill="#E33059"/><path fill-rule="evenodd" clip-rule="evenodd" d="M22.018 59.38a3.422 3.422 0 100 6.845 3.421 3.421 0 100-6.845zm0 5.684a2.262 2.262 0 010-4.523 2.259 2.259 0 012.258 2.261 2.259 2.259 0 01-2.258 2.262zm25.906-46.267v-3.423H36.268v13.61h11.656V25.56H39.69v-1.67h4.803v-3.423H39.69v-1.67h8.234zm-5.83 16.582a7.11 7.11 0 00-7.112 7.115 7.11 7.11 0 007.112 7.11 7.114 7.114 0 100-14.225zm.008 10.799a3.693 3.693 0 110-7.386 3.693 3.693 0 010 7.386zM43.992 56h-8.04v13.61h3.422v-5.077h4.614a4.262 4.262 0 004.245-4.267A4.253 4.253 0 0043.992 56zm-.013 5.106c-.004 0-.004 0 0 0h-4.6v-1.683h4.617v-.005a.843.843 0 01-.017 1.688z" fill="#732B90"/></svg>
